X:406
T:Sinkin' Creek
C:The Dillards - Arr. John Baldry
N:From " The Dillards Live -- Almost" Elektra EKL 265/EKS/-7265
R:bluegrass
L:1/8
Q:1/4=231
M:4/4
K:A
z8 |: "A"e^d ce a2 a2 | e^d ce "G"=gf gf | "A"e^d ce ag af | "E"ef ed "A"cA A2 :|: "A"AG AA c=c ^ce | 
ef ed "G"cB A2 | "A"AG AA c=c ^ce | "E"ee ab "A"c'b a2 :|: [e=c]"A"^c e2 a2 aa | 
e2 ef "G"=gf gf | "A"ee2e a=c' a=g | "E"e=g e^d "A"=d=c A2 :|: c"A"d ^de a2 a2 | 
cd ^de "G"=gf gf | "A"cd ^de ag af | "E"ef ed "A"cB A2 :|: A,"A"=G, A,B, C=C ^CD | 
EF ED "G"CB, A,=G, | "A"A,=G, A,B, C=C ^CD | "E"EF A"A"B cA z2 :| z8 | z8 | z8 | 
z8 | 


